src/assets/1999.svg

<svg width="2955" height="2870" fill="none" xmlns="http://www.w3.org/2000/svg">
  <g filter="url(#filter0_d)">
    <path d="M1760.05 587.227c-53.33-53.13 101.28-167.285-80.45-218.86C1437.12 299.554 580.712.561 580.712.561L25.277 1071.23s268.141 347.92 326.972 412.4c58.831 64.48 477.081 288.79 581.621 331.29 104.54 42.5 113.68-32.17 147.47 0 33.79 32.17-84.268 58.78-35.38 149.73 48.89 90.96 254.61 129.98 385.45 189.45 130.84 59.48-150.08 547.57 375.51 631.4 525.59 83.82 460.2-362.23 497.73-427.9 37.53-65.66 151.22 34.7 210.05 0 58.82-34.69 50.94-167.65 119.16-216.44 68.22-48.8 89.58-25.65 181.06-56.31 91.48-30.65 132.98-228.52 107.25-274.7-25.74-46.19-98.01-124.41-111.53-150.69-13.28-25.8-19.36-41.95-34.75-82.83l-.84-2.25c-16.02-42.53 19.84-84.56 56.35-160.14 36.52-75.58 103.48-163.34 7.12-248.36-96.35-85.01-230.12 27.49-287.71-56.92-57.59-84.41 8.75-143.885-119.24-197.685-127.98-53.799-372.96 115.875-425.18 76.06-52.22-39.814 24.88-136.092-11.31-187.389-36.18-51.298-181.69-159.588-235.03-212.719z" fill="#fff"/>
  </g>
  <defs>
    <filter id="filter0_d" x=".277" y=".561" width="2954.4" height="2869.39" filterUnits="userSpaceOnUse" color-interpolation-filters="sRGB">
      <feFlood flood-opacity="0" result="BackgroundImageFix"/>
      <feColorMatrix in="SourceAlpha" values="0 0 0 0 0 0 0 0 0 0 0 0 0 0 0 0 0 0 127 0"/>
      <feOffset dy="49"/>
      <feGaussianBlur stdDeviation="12.5"/>
      <feColorMatrix values="0 0 0 0 0 0 0 0 0 0 0 0 0 0 0 0 0 0 0.25 0"/>
      <feBlend in2="BackgroundImageFix" result="effect1_dropShadow"/>
      <feBlend in="SourceGraphic" in2="effect1_dropShadow" result="shape"/>
    </filter>
  </defs>
</svg>

<svg width="2955" height="2870" viewBox="0 0 2955 2870" fill="none" xmlns="http://www.w3.org/2000/svg">
<g filter="url(#filter0_d)">
<path d="M1760.05 587.227C1706.72 534.097 1861.33 419.942 1679.6 368.367C1437.12 299.554 580.712 0.560547 580.712 0.560547L25.2773 1071.23C25.2773 1071.23 293.418 1419.15 352.249 1483.63C411.08 1548.11 829.33 1772.42 933.87 1814.92C1038.41 1857.42 1047.55 1782.75 1081.34 1814.92C1115.13 1847.09 997.072 1873.7 1045.96 1964.65C1094.85 2055.61 1300.57 2094.63 1431.41 2154.1C1562.25 2213.58 1281.33 2701.67 1806.92 2785.5C2332.51 2869.32 2267.12 2423.27 2304.65 2357.6C2342.18 2291.94 2455.87 2392.3 2514.7 2357.6C2573.52 2322.91 2565.64 2189.95 2633.86 2141.16C2702.08 2092.36 2723.44 2115.51 2814.92 2084.85C2906.4 2054.2 2947.9 1856.33 2922.17 1810.15C2896.43 1763.96 2824.16 1685.74 2810.64 1659.46C2797.36 1633.66 2791.28 1617.51 2775.89 1576.63L2775.05 1574.38C2759.03 1531.85 2794.89 1489.82 2831.4 1414.24C2867.92 1338.66 2934.88 1250.9 2838.52 1165.88C2742.17 1080.87 2608.4 1193.37 2550.81 1108.96C2493.22 1024.55 2559.56 965.075 2431.57 911.275C2303.59 857.476 2058.61 1027.15 2006.39 987.335C1954.17 947.521 2031.27 851.243 1995.08 799.946C1958.9 748.648 1813.39 640.358 1760.05 587.227Z" fill="white"/>
</g>
<defs>
<filter id="filter0_d" x="0.277344" y="0.560547" width="2954.4" height="2869.39" filterUnits="userSpaceOnUse" color-interpolation-filters="sRGB">
<feFlood flood-opacity="0" result="BackgroundImageFix"/>
<feColorMatrix in="SourceAlpha" type="matrix" values="0 0 0 0 0 0 0 0 0 0 0 0 0 0 0 0 0 0 127 0"/>
<feOffset dy="49"/>
<feGaussianBlur stdDeviation="12.5"/>
<feColorMatrix type="matrix" values="0 0 0 0 0 0 0 0 0 0 0 0 0 0 0 0 0 0 0.25 0"/>
<feBlend mode="normal" in2="BackgroundImageFix" result="effect1_dropShadow"/>
<feBlend mode="normal" in="SourceGraphic" in2="effect1_dropShadow" result="shape"/>
</filter>
</defs>
</svg>
